Numix/16/status/indicator-keyboard-Ku-5.svg

<?xml version="1.0" encoding="UTF-8" standalone="no"?>
<svg
   xmlns:dc="http://purl.org/dc/elements/1.1/"
   xmlns:cc="http://creativecommons.org/ns#"
   xmlns:rdf="http://www.w3.org/1999/02/22-rdf-syntax-ns#"
   xmlns:svg="http://www.w3.org/2000/svg"
   xmlns="http://www.w3.org/2000/svg"
   xmlns:sodipodi="http://sodipodi.sourceforge.net/DTD/sodipodi-0.dtd"
   xmlns:inkscape="http://www.inkscape.org/namespaces/inkscape"
   viewBox="0 0 16 16"
   id="svg2"
   version="1.1"
   inkscape:version="0.91 r13725"
   sodipodi:docname="indicator-keyboard-Ku-5.svg">
  <metadata
     id="metadata14">
    <rdf:RDF>
      <cc:Work
         rdf:about="">
        <dc:format>image/svg+xml</dc:format>
        <dc:type
           rdf:resource="http://purl.org/dc/dcmitype/StillImage" />
      </cc:Work>
    </rdf:RDF>
  </metadata>
  <defs
     id="defs12" />
  <sodipodi:namedview
     pagecolor="#ffffff"
     bordercolor="#666666"
     borderopacity="1"
     objecttolerance="10"
     gridtolerance="10"
     guidetolerance="10"
     inkscape:pageopacity="0"
     inkscape:pageshadow="2"
     inkscape:window-width="640"
     inkscape:window-height="480"
     id="namedview10"
     showgrid="false"
     inkscape:zoom="14.75"
     inkscape:cx="8"
     inkscape:cy="8"
     inkscape:window-x="65"
     inkscape:window-y="24"
     inkscape:window-maximized="0"
     inkscape:current-layer="svg2" />
  <path
     style="fill:#ececec;fill-opacity:1"
     d="M 1.5996094 0 C 0.71320937 2.9605947e-16 0 0.71320937 0 1.5996094 L 0 14.400391 C 2.9605947e-16 15.286791 0.71320937 16 1.5996094 16 L 14.400391 16 C 15.286791 16 16 15.286791 16 14.400391 L 16 1.5996094 C 16 0.71320937 15.286791 0 14.400391 0 L 1.5996094 0 z M 1.7363281 4.859375 L 2.3476562 4.859375 L 2.3476562 7.765625 C 2.5756563 7.561625 2.8275156 7.3284531 3.1035156 7.0644531 C 3.3855156 6.7944531 3.6616406 6.5239062 3.9316406 6.2539062 C 4.2076406 5.9839063 4.4670313 5.7264687 4.7070312 5.4804688 C 4.9470313 5.2344688 5.1392031 5.027375 5.2832031 4.859375 L 6.0195312 4.859375 C 5.8455312 5.045375 5.636625 5.2673906 5.390625 5.5253906 C 5.144625 5.7773906 4.8834219 6.0385937 4.6074219 6.3085938 C 4.3314219 6.5785938 4.0552969 6.845375 3.7792969 7.109375 C 3.5092969 7.367375 3.2667812 7.5949688 3.0507812 7.7929688 C 3.2247812 7.9009687 3.4094219 8.0352656 3.6074219 8.1972656 C 3.8114219 8.3532656 4.0167031 8.5287031 4.2207031 8.7207031 C 4.4307031 8.9067031 4.6340312 9.1044531 4.8320312 9.3144531 C 5.0360312 9.5184531 5.2244375 9.7255469 5.3984375 9.9355469 C 5.5784375 10.145547 5.7389531 10.348875 5.8769531 10.546875 C 6.0209531 10.744875 6.1365625 10.927703 6.2265625 11.095703 L 5.5429688 11.095703 C 5.3389688 10.783703 5.1076094 10.475922 4.8496094 10.169922 C 4.5976094 9.8639217 4.3308281 9.5746875 4.0488281 9.3046875 C 3.7668281 9.0346875 3.4795469 8.7884063 3.1855469 8.5664062 C 2.8975469 8.3444062 2.6176563 8.1597656 2.3476562 8.0097656 L 2.3476562 11.095703 L 1.7363281 11.095703 L 1.7363281 4.859375 z M 7.0429688 6.4433594 L 7.6269531 6.4433594 L 7.6269531 8.8632812 C 7.6269531 9.1932813 7.6512187 9.4731719 7.6992188 9.7011719 C 7.7472188 9.9291721 7.8255937 10.115766 7.9335938 10.259766 C 8.0415938 10.397766 8.1796562 10.498453 8.3476562 10.564453 C 8.5216562 10.624453 8.7325156 10.654297 8.9785156 10.654297 C 9.2545156 10.654297 9.4932656 10.639375 9.6972656 10.609375 C 9.9012654 10.579375 10.029984 10.553297 10.083984 10.529297 L 10.083984 6.4433594 L 10.669922 6.4433594 L 10.669922 10.933594 C 10.495922 10.981594 10.26275 11.035703 9.96875 11.095703 C 9.67475 11.155703 9.3146719 11.185547 8.8886719 11.185547 C 8.5406719 11.185547 8.249625 11.135203 8.015625 11.033203 C 7.781625 10.931203 7.5912656 10.787563 7.4472656 10.601562 C 7.3032656 10.415563 7.1988125 10.189781 7.1328125 9.9257812 C 7.0728125 9.6617812 7.0429687 9.3707344 7.0429688 9.0527344 L 7.0429688 6.4433594 z M 12.298828 8.8417969 L 14.123047 8.8417969 L 14.123047 9.1757812 L 12.630859 9.1757812 C 12.626993 9.2498812 12.621115 9.3458906 12.613281 9.4628906 C 12.605481 9.5798906 12.597644 9.6994188 12.589844 9.8242188 C 12.582044 9.9451188 12.572247 10.062681 12.560547 10.175781 C 12.548847 10.288881 12.53905 10.379012 12.53125 10.445312 C 12.83155 10.453112 13.092148 10.490341 13.310547 10.556641 C 13.528947 10.622941 13.707256 10.711119 13.847656 10.824219 C 13.988056 10.937319 14.091903 11.074475 14.158203 11.234375 C 14.228403 11.394275 14.263672 11.572578 14.263672 11.767578 C 14.263672 11.939178 14.234281 12.097894 14.175781 12.246094 C 14.121181 12.394294 14.034969 12.523613 13.917969 12.632812 C 13.800969 12.742012 13.654009 12.828225 13.474609 12.890625 C 13.295209 12.953025 13.081637 12.984375 12.835938 12.984375 C 12.711137 12.984375 12.593575 12.974578 12.484375 12.955078 C 12.379075 12.939478 12.285019 12.919884 12.199219 12.896484 C 12.117319 12.873084 12.046781 12.849572 11.988281 12.826172 C 11.929781 12.802772 11.886675 12.783178 11.859375 12.767578 L 11.958984 12.427734 C 11.982384 12.443334 12.021572 12.462928 12.076172 12.486328 C 12.134672 12.509728 12.201291 12.533241 12.275391 12.556641 C 12.353391 12.576141 12.43765 12.593775 12.53125 12.609375 C 12.62875 12.624975 12.730638 12.632812 12.835938 12.632812 C 13.030938 12.632812 13.193566 12.611259 13.322266 12.568359 C 13.454866 12.521559 13.558719 12.458859 13.636719 12.380859 C 13.714719 12.302859 13.769581 12.212728 13.800781 12.111328 C 13.835881 12.006028 13.853516 11.894337 13.853516 11.773438 C 13.853516 11.617437 13.828044 11.476362 13.777344 11.351562 C 13.726644 11.226762 13.638466 11.120956 13.509766 11.035156 C 13.381066 10.949356 13.206681 10.884697 12.988281 10.841797 C 12.769881 10.794997 12.493603 10.771484 12.158203 10.771484 C 12.181603 10.572584 12.201197 10.392316 12.216797 10.228516 C 12.232397 10.060816 12.246113 9.9001469 12.257812 9.7480469 C 12.269513 9.5920469 12.27735 9.4431281 12.28125 9.2988281 C 12.28905 9.1506281 12.294928 8.9977969 12.298828 8.8417969 z "
     id="path4" />
</svg>

<svg xmlns="http://www.w3.org/2000/svg" viewBox="0 0 16 16">
 <path d="m 1.6 0 c -0.886 0 -1.6 0.713 -1.6 1.6 l 0 12.801 c 0 0.886 0.713 1.6 1.6 1.6 l 12.801 0 c 0.886 0 1.6 -0.713 1.6 -1.6 l 0 -12.801 c 0 -0.886 -0.713 -1.6 -1.6 -1.6 l -12.801 0 z m 0.137 4.859 l 0.611 0 l 0 2.906 c 0.228 -0.204 0.48 -0.437 0.756 -0.701 c 0.282 -0.27 0.558 -0.541 0.828 -0.811 c 0.276 -0.27 0.535 -0.527 0.775 -0.773 c 0.24 -0.246 0.432 -0.453 0.576 -0.621 l 0.736 0 c -0.174 0.186 -0.383 0.408 -0.629 0.666 c -0.246 0.252 -0.507 0.513 -0.783 0.783 c -0.276 0.27 -0.552 0.537 -0.828 0.801 c -0.27 0.258 -0.513 0.486 -0.729 0.684 c 0.174 0.108 0.359 0.242 0.557 0.404 c 0.204 0.156 0.409 0.331 0.613 0.523 c 0.21 0.186 0.413 0.384 0.611 0.594 c 0.204 0.204 0.392 0.411 0.566 0.621 c 0.18 0.21 0.341 0.413 0.479 0.611 c 0.144 0.198 0.26 0.381 0.35 0.549 l -0.684 0 c -0.204 -0.312 -0.435 -0.62 -0.693 -0.926 c -0.252 -0.306 -0.519 -0.595 -0.801 -0.865 c -0.282 -0.27 -0.569 -0.516 -0.863 -0.738 c -0.288 -0.222 -0.568 -0.407 -0.838 -0.557 l 0 3.086 l -0.611 0 l 0 -6.236 z m 5.307 1.584 l 0.584 0 l 0 2.42 c 0 0.33 0.024 0.61 0.072 0.838 c 0.048 0.228 0.126 0.415 0.234 0.559 c 0.108 0.138 0.246 0.239 0.414 0.305 c 0.174 0.06 0.385 0.09 0.631 0.09 c 0.276 0 0.515 -0.015 0.719 -0.045 c 0.204 -0.03 0.333 -0.056 0.387 -0.08 l 0 -4.086 l 0.586 0 l 0 4.49 c -0.174 0.048 -0.407 0.102 -0.701 0.162 c -0.294 0.06 -0.654 0.09 -1.08 0.09 c -0.348 0 -0.639 -0.05 -0.873 -0.152 c -0.234 -0.102 -0.424 -0.246 -0.568 -0.432 c -0.144 -0.186 -0.248 -0.412 -0.314 -0.676 c -0.06 -0.264 -0.09 -0.555 -0.09 -0.873 l 0 -2.609 z m 5.256 2.398 l 1.824 0 l 0 0.334 l -1.492 0 c -0.004 0.074 -0.01 0.17 -0.018 0.287 c -0.008 0.117 -0.016 0.237 -0.023 0.361 c -0.008 0.121 -0.018 0.238 -0.029 0.352 c -0.012 0.113 -0.021 0.203 -0.029 0.27 c 0.3 0.008 0.561 0.045 0.779 0.111 c 0.218 0.066 0.397 0.154 0.537 0.268 c 0.14 0.113 0.244 0.25 0.311 0.41 c 0.07 0.16 0.105 0.338 0.105 0.533 c 0 0.172 -0.029 0.33 -0.088 0.479 c -0.055 0.148 -0.141 0.278 -0.258 0.387 c -0.117 0.109 -0.264 0.195 -0.443 0.258 c -0.179 0.062 -0.393 0.094 -0.639 0.094 c -0.125 0 -0.242 -0.01 -0.352 -0.029 c -0.105 -0.016 -0.199 -0.035 -0.285 -0.059 c -0.082 -0.023 -0.152 -0.047 -0.211 -0.07 c -0.059 -0.023 -0.102 -0.043 -0.129 -0.059 l 0.1 -0.34 c 0.023 0.016 0.063 0.035 0.117 0.059 c 0.059 0.023 0.125 0.047 0.199 0.07 c 0.078 0.019 0.162 0.037 0.256 0.053 c 0.098 0.016 0.199 0.023 0.305 0.023 c 0.195 0 0.358 -0.022 0.486 -0.064 c 0.133 -0.047 0.236 -0.109 0.314 -0.188 c 0.078 -0.078 0.133 -0.168 0.164 -0.27 c 0.035 -0.105 0.053 -0.217 0.053 -0.338 c 0 -0.156 -0.025 -0.297 -0.076 -0.422 c -0.051 -0.125 -0.139 -0.231 -0.268 -0.316 c -0.129 -0.086 -0.303 -0.15 -0.521 -0.193 c -0.218 -0.047 -0.495 -0.07 -0.83 -0.07 c 0.023 -0.199 0.043 -0.379 0.059 -0.543 c 0.016 -0.168 0.029 -0.328 0.041 -0.48 c 0.012 -0.156 0.02 -0.305 0.023 -0.449 c 0.008 -0.148 0.014 -0.301 0.018 -0.457 z" style="fill:#ececec;fill-opacity:1"/>
</svg>
